X:1
T:Till the Day Shall Dawn
T:Till the Day Shall Dawn
T:Daniel Brink Towner
T:Grace W. Burleigh, 1903
T:Public Domain Courtesy of the Cyber Hymnal™
T:Public Domain Courtesy of the Cyber Hymnal™
C:Daniel Brink Towner
Z:Public Domain
Z:Courtesy of the Cyber Hymnal™
%%score ( 1 2 ) ( 3 4 )
L:1/8
Q:1/4=102
M:4/4
K:D
V:1 treble 
V:2 treble 
V:3 bass 
V:4 bass 
V:1
 D[DE] | [DF]2 [DE]D [DG]2 [DF][DE] | [DA]6 DE | (z2 D2) [CE]2 x2 | D6 D[DE] | %5
w: 1.~We must|wait in this sha- dow- y|land Till the|* day|* shall dawn;|
w: 2.~We must|live full of kind- ness and|love, Till the|* day|* shall dawn;|
w: 3.~We must|com- fort the hearts that are|sad, Till the|* day|* shall dawn;|
w: 4.~We must|watch for our Je- sus to|come, Till the|* day|* shall dawn;|
 [DF]2 [DE]D [DG]2 [DF][DE] | [DA]6 DE | (z2 [CE]2) x6 | D6 [DF]>[EG] | [FA]6 [Fd]2 | %10
w: We must march with the brave|pil- grim band,||Till the day|shall dawn;|
w: We must trust in our Fa-|ther a- bove,||Till the day|shall dawn;|
w: We must help them to trust|and be glad,||Till the day|shall dawn;|
w: We must wait for the sweet|rest of home,||Till the day|shall dawn;|
 [Gc]6 [Ec]>[Fd] | [Ge]6 [Af]2 | [Fd]6 [DA]2 | [DB]3 [Dc] [Gd]2 [GB]2 | [FA]3 [GB] [FA]2 D[DE] | %15
w: Till the day|shall dawn,|Till the|day shall dawn, Till|morn- ing light shall scat-|
w: Till the day|shall dawn,|Till the|day shall dawn, Till|far and near the morn|
w: Till the day|shall dawn,|Till the|day shall dawn, Till|sor- row’s night shall fade|
w: Till the day|shall dawn,|Till the|day shall dawn, Till|God’s dear Son shall say,|
 [DF]2 [DA][DB] [DF]2 [CE]>[CE] | D6 |] %17
w: ter night, And the day- star|a-|
w: ap- pear, And the day- star|a-|
w: in light, And the day- star|a-|
w: “Well done,” And the day- star|a-|
V:2
 D x | x3 D x4 | x8 | F4 DD x2 | D6 D x | x3 D x4 | x8 | (F6 DD D2) | D6 x2 | x8 | x8 | x8 | x8 | %13
 x8 | x6 D x | x8 | D6 |] %17
V:3
 [D,F,][D,G,] | [D,A,]2 [D,G,][D,F,] [D,B,]2 [D,A,][D,G,] | [D,F,]6 z2 | %3
 z2 ([D,A,][D,A,] [A,,A,]2) [A,,A,]2 | [D,F,]6 [D,F,][D,G,] | %5
 [D,A,]2 [D,G,][D,F,] [D,B,]2 [D,A,][D,G,] | [D,F,]6 z2 | z2 ([D,A,][D,A,] [A,,A,]2) [A,,G,]2 x2 | %8
 [D,F,]6 z2 | z2 ([D,D]>[D,D] [D,D]2) [D,A,]2 | ([A,,A,]2 [A,,A,]2 [A,,A,]2) z2 | %11
 z2 ([A,C]>[A,C] [A,C]2) [A,C]2 | ([D,D]2 [D,B,]2 [D,A,]2) [F,A,]2 | G,3 [G,A,] [G,B,]2 [G,D]2 | %14
 [D,D]3 [D,D] [D,D]2 [D,F,][D,G,] | [D,A,]2 [F,D][G,D] [A,D]2 [A,,A,]>[A,,G,] | [D,F,]6 |] %17
V:4
 x2 | x8 | x8 | x8 | x8 | x8 | x8 | x10 | x8 | x8 | x8 | x8 | x8 | G,3 x5 | x8 | x8 | x6 |] %17

